X:2658
T:Careáu de Silvamayor (MG 68)
R:Careáu
C:Versión de Gaiteru Tradicional
S:Música Tradicional Asturiana, (C) Tello & Tito. Asturies, 2001.
S:http://pagina.de/MusTradAst <telloytito@asturies.org>
N:Baille del Oucidente asturianu.
N:El ritmu ye tenrariu.
N:Los bailladores dancien en rueda y van cambiando de parexa demientres van dando vueltes, dándose la cara "careándose".
N:Nes brañes de Silvamayor, Emberniegu, Busecu y Aristébanu cántase con payel.la.
N:Nes de Tinéu acompáñase de pandeiru redondu y payel.la.
O:Silvamayor (Lluarca)
A:Asturies
Z:Métodu de Gaita 68
E:Comp.
M:3/8
L:1/8
Q:3/8=90
K:C
|: G2 G|G~AG|F2 G|B2 A|GFG|~A G2-|
G2 E|G2 G|GAG|FE~G|FED|C3-|
C2 D|EE~G|F2 E|[1 D C2-|C2 E :|[2 D C2-|C2 G|
|: C>DE|FED|C>DE|F~ED|CF~E|D2 D|
|B,>CD|E~DC|B,>CD|E~DC|B,ED|[1 C2 G :|[2 C3-|C2 C|
|: F~ED|C B,/C/D/E/|F G/F/E/D/|~GEC|F~ED|C B,/C/D/E/|F G/F/E/D/|C2 C :|
|F~ED|C B,/C/D/E/|F G/F/E/D/|~GEC|F~ED|C B,/C/D/E/|
|: C>DE|F~ED|C>DE|F~ED|CF~E|D2 D|
|B,>CD|E~DC|B,>CD|E~DC|B,ED|[1 C2 G :|[2 C3-|C2 G|
|: C>DE|FGG|~A2 G|FGG|~A2 G|EGF|~E2 D|[1 C2 G :|[2 C3-|C GG|
|: GFE|DEE|FG/F/E-|EGG|GFE|D E/F/E/D/|[1 C3-|CGG :|[2 C3-|C2 G|
|: C>DE|F~ED|C>DE|F~ED|CF~E|D2 D|
|B,>CD|E~DC|B,>CD|E~DC|B,ED|[1 C2 G :|[2 C3-|C2 E|
|: G2 E|F G/F/E/D/|C3-|C2 G :|
|: C>DE|F~ED|C>DE|F~ED|CFE|D2 D|
|B,>CD|E~DC|B,>CD|E~DC|B,ED|[1 C2 G :|[2 C3-|C2 z|


